svgs/light/standard-definition.svg

<svg xmlns="http://www.w3.org/2000/svg" viewBox="0 0 576 512"><!--! Font Awesome Pro 6.3.0 by @fontawesome - https://fontawesome.com License - https://fontawesome.com/license (Commercial License) Copyright 2023 Fonticons, Inc. --><path d="M512 32H64C28.65 32 0 60.65 0 96v320c0 35.35 28.65 64 64 64h448c35.35 0 64-28.65 64-64V96C576 60.65 547.3 32 512 32zM544 416c0 17.64-14.36 32-32 32H64c-17.64 0-32-14.36-32-32V96c0-17.64 14.36-32 32-32h448c17.64 0 32 14.36 32 32V416zM384 160h-64c-8.844 0-16 7.156-16 16v160c0 8.844 7.156 16 16 16h64c52.94 0 96-43.06 96-96S436.9 160 384 160zM384 320h-48V192H384c35.28 0 64 28.7 64 64S419.3 320 384 320zM195.6 240.4l-8.312-2C144.4 227.9 142.5 220.3 144.5 210.6c2.969-14.36 28.88-21.72 61.78-17.41c7.749 1.016 17.09 3.125 29.31 6.656c8.562 2.375 17.34-2.453 19.81-10.95c2.438-8.484-2.469-17.36-10.94-19.8C230.6 165.1 219.8 162.7 210.4 161.5C157.1 154.6 119.9 171.4 113.2 204.1C103.5 250.8 153.1 262.1 179.7 269.5l8.531 2.047c43.53 10.36 54.06 16.5 51.31 29.84c-3 14.36-29 21.67-61.84 17.39c-11.97-1.5-26.06-5.734-38.5-9.453L132.5 307.3C123.1 304.8 115.2 309.7 112.7 318.2s2.344 17.38 10.81 19.86l6.531 1.953c13.63 4.078 29.06 8.719 43.63 10.53c7.75 1.016 14.99 1.516 22.05 1.516c40.66 0 69.39-16.28 75.17-44.14C280.7 260.6 231.5 248.9 195.6 240.4z"/></svg>

<svg xmlns="http://www.w3.org/2000/svg" viewBox="0 0 576 512"><!-- Font Awesome Pro 6.0.0-alpha2 by @fontawesome - https://fontawesome.com License - https://fontawesome.com/license (Commercial License) --><path d="M512 32H64C28.654 32 0 60.652 0 96V416C0 451.346 28.654 480 64 480H512C547.346 480 576 451.346 576 416V96C576 60.652 547.346 32 512 32ZM544 416C544 433.645 529.645 448 512 448H64C46.355 448 32 433.645 32 416V96C32 78.355 46.355 64 64 64H512C529.645 64 544 78.355 544 96V416ZM384 160H320C311.156 160 304 167.156 304 176V336C304 344.844 311.156 352 320 352H384C436.938 352 480 308.938 480 256S436.938 160 384 160ZM384 320H336V192H384C419.281 192 448 220.703 448 256S419.281 320 384 320ZM195.625 240.391L187.312 238.391C144.375 227.875 142.469 220.25 144.469 210.625C147.437 196.266 173.344 188.906 206.25 193.219C213.999 194.234 223.344 196.344 235.562 199.875C244.125 202.25 252.906 197.422 255.375 188.922C257.812 180.437 252.906 171.562 244.437 169.125C230.594 165.141 219.781 162.719 210.375 161.5C157.969 154.641 119.938 171.422 113.156 204.125C103.469 250.797 153.062 262.953 179.688 269.484L188.219 271.531C231.75 281.891 242.281 288.031 239.531 301.375C236.531 315.734 210.531 323.047 177.688 318.766C165.719 317.266 151.625 313.031 139.188 309.312L132.531 307.328C123.969 304.797 115.156 309.688 112.656 318.156S115 335.531 123.469 338.016L129.999 339.969C143.625 344.047 159.062 348.688 173.625 350.5C181.375 351.516 188.812 352.016 195.875 352.016C236.531 352.016 265.062 335.734 270.844 307.875C280.656 260.641 231.5 248.938 195.625 240.391Z"/></svg>
